X: 31022
T: Paddy Breen's
R: jig
M: 6/8
K: Gmajor
|:D/E/F|G2B G2B|G2B ded|BAB E2D|FAG FED|
G2B G2B|G2B ded|BAB E2D|FAF G:|
|:D/E/F|GBd g3|f2e e2d|e2d e2f|e2d BAB|
GB/c/d gag|f2e e2d|BAB E2D|FAF G:|

